X:146
T:New Frock, The 
F:file ID: cre.5/146new_f
B:CRE5.025 (An GÃÂÃÂÃÂÃÂºna Nua)
N:Sounds like a relative of "Brian Boru's March"
M:6/8
Q:160
R:jig
K:Am
e/d/|cBc Aed|cBc ABc|dBG GBG|dBG GAB|
cBc Aed|cBc AGE|cde gde|cAA A2:|
B/d/|c2d e2d|efg edc|B2c d2e|d2e dBG|
c2d e2d|efg edB|gfg ede|cAA A2:|

%%%

